X: 114
T:La Marianne
M:3/4
L:1/4
Q:170
R:Valse
O:France
A:Bourbonnais
K:C
cec|g3|faf|ed2|cec|g3|fed|c3|
cec|g3|faf|ed2|cec|g3|fef|g3|
|:f a/2f/2d/2f/2|e g/2e/2c/2e/2|d f/2d/2B/2d/2|1c
e/2c/2g/2c/2:|2c3||
W:
W: From "Falaleiro" http://home.t-online.de/home/pheld/homepage.htm
